X: 279
T: Pretty Maggie Morrissey
T: The Wexford Hornpipe
R: Hornpipe
L: 1/8
M: 4/4
K:G
Bc|"G"dBGB "D7"cAFA|"G"~G3F GABc|d~g3 "C"efge|"G"dBGB "D"A2Bc|
"G"dBGB "D7"cAFA|"G"~G3F GABc|d~g3 "C"ecAF|"G"G2 GF G2:|
Bc|"G"d~g3 "C"efge|"G"dggB "C"c2Bc|"G"d~g3 "C"efge|"G"dBGB "D"A2Bc|
"G"dBGB "D7"cAFA|"G"GBAF GABc|dgfg "C"ecAF|"G"G2 GF G2:|


